;FLAVOR:Marlin
;TIME:2696
;Filament used: 1.76678m
;Layer height: 0.2
;MINX:124.953
;MINY:125.018
;MINZ:0.2
;MAXX:180.039
;MAXY:179.975
;MAXZ:9.8
;ARCWELDERPROCESSED
; Postprocessed by [ArcWelder](https://github.com/FormerLurker/ArcWelderLib)
; Copyright(C) 2020 - Brad Hochgesang
; resolution=0.05mm
; path_tolerance=1%
; max_radius=1000000.00mm
; firmware_compensation=True
; mm_per_arc_segment=1.00mm
; min_arc_segments=12
; default_xyz_precision=3
; default_e_precision=5

;Generated with Cura_SteamEngine 4.9.0
M140 S55
M105
M190 S55
M104 S225
M105
M109 S225
M82 ;absolute extrusion mode
M92 E144.22
;M201 X500.00 Y500.00 Z100.00 E5000.00 ;Setup machine max acceleration
;M203 X500.00 Y500.00 Z10.00 E50.00 ;Setup machine max feedrate
;M204 P500.00 R1000.00 T500.00 ;Setup Print/Retract/Travel acceleration
;M205 X10.00 Y10.00 Z0.40 E2.50 ;Setup Jerk
M220 S100 ;Reset Feedrate
M221 S100 ;Reset Flowrate
G28 ;Home

G92 E0 ;Reset Extruder
G1 Z3.0 F3000 ;Move Z Axis up
G1 X0 Y0 Z0.32 F5000.0 ;Move to start position
G1 X200 Y0.0 Z0.28 F1500.0 E15 ;Draw the first line
G1 X200 Y5.0 Z0.28 F5000.0 ;Move to side a little
G1 X0 Y5 Z0.28 F1500.0 E30 ;Draw the second line
G92 E0 ;Reset Extruder
G1 Z3.0 F3000 ;Move Z Axis up
G92 E0
G92 E0
G1 F3000 E-3
;LAYER_COUNT:50
;LAYER:0
M107
G0 F6000 X132.921 Y133.183 Z0.2
;TYPE:SKIRT
G1 F3000 E0
G3 X134.400 Y131.945 I7.502 J7.460 E0.06422 F1200
G3 X139.571 Y128.292 I2047.316 J2892.590 E0.27483
G3 X144.373 Y126.365 I8.508 J14.254 E0.44766
G2 X150.612 Y125.122 I-258.303 J-1312.780 E0.65927
G3 X155.774 Y125.328 I1.923 J16.600 E0.83183
G2 X161.935 Y126.722 I164.672 J-713.482 E1.04195
G3 X166.740 Y129.130 I-4.937 J15.850 E1.22157
G2 X171.630 Y132.782 I905.864 J-1207.846 E1.42459
G3 X175.010 Y136.855 I-10.915 J12.496 E1.60143
G2 X178.066 Y142.310 I643.526 J-356.932 E1.80943
G3 X179.462 Y147.261 I-15.571 J7.063 E1.98124
G2 X180.039 Y153.517 I737.949 J-64.907 E2.19023
G3 X179.312 Y158.676 I-16.581 J0.294 E2.36426
G2 X177.264 Y164.714 I607.202 J209.320 E2.57635
G3 X174.436 Y169.150 I-15.095 J-6.504 E2.75212
G2 X170.192 Y173.745 I782.099 J726.614 E2.96018
G3 X165.925 Y176.593 I-11.242 J-12.223 E3.13153
G2 X160.076 Y179.108 I519.537 J1216.317 E3.34332
G3 X155.010 Y179.975 I-5.320 J-15.853 E3.51499
G2 X148.659 Y179.895 I-14.151 J871.271 E3.72627
G3 X143.666 Y178.628 I1.599 J-16.773 E3.89833
G2 X137.945 Y175.990 I-347.097 J745.224 E4.10789
G3 X133.688 Y172.599 I7.652 J-13.974 E4.28979
G2 X130.215 Y168.672 I-115.909 J99.009 E4.46418
G3 X127.233 Y163.368 I12.481 J-10.507 E4.66787
G2 X125.633 Y158.290 I-136.068 J40.082 E4.84498
G3 X125.046 Y152.133 I15.452 J-4.580 E5.05208
G2 X125.778 Y145.925 I-593.789 J-73.162 E5.26001
G3 X127.697 Y140.867 I16.275 J3.282 E5.44080
G2 X130.781 Y135.682 I-556.152 J-334.305 E5.64148
G3 X132.365 Y133.759 I15.487 J11.143 E5.72440
G0 F1080 X132.535 Y133.578
G0 X132.745 Y133.36
G0 X132.921 Y133.183
G0 F6000 X133.205 Y133.465
G3 X134.628 Y132.274 I7.194 J7.149 E5.78618 F1200
G2 X139.044 Y129.127 I-221.232 J-315.113 E5.96656
G3 X144.447 Y126.758 I8.889 J12.926 E6.16404
G2 X150.682 Y125.516 I-364.395 J-1845.583 E6.37552
G3 X155.681 Y125.717 I1.846 J16.342 E6.54261
G2 X161.838 Y127.111 I158.834 J-687.241 E6.75261
G3 X166.497 Y129.448 I-4.829 J15.439 E6.92679
G2 X171.383 Y133.097 I1134.801 J-1514.399 E7.12965
G3 X174.659 Y137.046 I-10.695 J12.206 E7.30108
G2 X177.290 Y141.699 I102.698 J-55.000 E7.47888
G3 X179.063 Y147.294 I-13.913 J7.487 E7.67535
G2 X179.640 Y153.545 I800.158 J-70.707 E7.88417
G3 X178.935 Y158.544 I-16.247 J0.258 E8.05280
G2 X176.888 Y164.577 I649.519 J223.746 E8.26472
G3 X174.148 Y168.872 I-14.900 J-6.484 E8.43492
G2 X169.904 Y173.467 I1114.011 J1033.172 E8.64299
G3 X165.771 Y176.224 I-11.302 J-12.466 E8.80892
G2 X159.926 Y178.736 I385.121 J904.168 E9.02055
G3 X155.019 Y179.575 I-5.268 J-16.043 E9.18681
G2 X148.673 Y179.495 I-14.556 J902.952 E9.39793
G3 X143.837 Y178.267 I1.691 J-16.797 E9.56457
G2 X138.121 Y175.630 I-342.060 J733.942 E9.77397
G3 X133.992 Y172.339 I7.487 J-13.630 E9.95044
G2 X130.511 Y168.403 I-118.397 J101.203 E10.12523
G3 X127.616 Y163.253 I12.203 J-10.248 E10.32299
G2 X126.013 Y158.164 I-135.445 J39.867 E10.50047
G3 X125.443 Y152.184 I15.081 J-4.455 E10.70161
G2 X126.175 Y145.981 I-913.114 J-110.899 E10.90938
G3 X128.039 Y141.075 I15.906 J3.236 E11.08477
G2 X131.121 Y135.895 I-579.450 J-348.269 E11.28527
G3 X132.649 Y134.041 I14.996 J10.803 E11.36523
G0 F1080 X132.826 Y133.852
G0 X133.029 Y133.642
G0 X133.205 Y133.465
G1 F3000 E8.36523
;MESH:Motor Gear.stl
G0 F6000 X139.098 Y142.412
G0 X140.396 Y142.221
G0 X143.219 Y145.177
G0 X149.186 Y154.655
;TYPE:WALL-INNER
G1 F3000 E11.36523
G1 F1200 X149.771 Y155.511 E11.39971
G1 X155.249 Y155.511 E11.58191
G2 X156.325 Y153.442 I-4.202 J-3.500 E11.66009 F1200
G2 X156.241 Y151.459 I-3.869 J-0.829 E11.72675
G2 X155.249 Y149.711 I-5.696 J2.077 E11.79389
G1 X149.771 Y149.711 E11.97609
G2 X148.892 Y151.142 I4.982 J4.046 E12.03206
G2 X148.625 Y152.942 I3.437 J1.430 E12.09311
G2 X148.846 Y153.933 I3.067 J-0.164 E12.12700
G0 F1080 X148.892 Y154.084
G0 X149.186 Y154.655
G0 F6000 X149.53 Y154.45
G1 F1200 X149.982 Y155.111 E12.15363
G1 X155.038 Y155.111 E12.32179
G2 X155.933 Y153.357 I-3.574 J-2.929 E12.38780 F1200
G2 X155.857 Y151.577 I-3.467 J-0.744 E12.44764
G2 X155.038 Y150.111 I-4.741 J1.687 E12.50374
G1 X149.982 Y150.111 E12.6719
G2 X149.087 Y151.866 I3.536 J2.909 E12.73795
G2 X149.087 Y153.363 I3.731 J0.748 E12.78805
G1 X149.2 Y153.724 E12.80064
G0 F1080 X149.264 Y153.932
G0 X149.53 Y154.45
G0 F6000 X149.874 Y154.245
G1 F1200 X150.193 Y154.711 E12.81942
G1 X154.827 Y154.711 E12.97355
G2 X155.541 Y153.272 I-2.591 J-2.182 E13.02739 F1200
G2 X155.473 Y151.695 I-3.066 J-0.658 E13.08040
G2 X154.827 Y150.511 I-3.792 J1.301 E13.12546
G1 X150.193 Y150.511 E13.27959
G2 X149.479 Y151.951 I2.612 J2.192 E13.33346
G2 X149.479 Y153.275 I3.277 J0.662 E13.37778
G1 X149.554 Y153.515 E13.38614
G0 F1080 X149.636 Y153.78
G0 X149.874 Y154.245
G0 F6000 X150.404 Y154.311
;TYPE:WALL-OUTER
G1 F1200 X154.616 Y154.311 E13.51923
G2 X155.149 Y153.187 I-2.198 J-1.731 E13.55881 F1200
G2 X155.089 Y151.813 I-2.665 J-0.572 E13.60269
G2 X154.616 Y150.911 I-2.851 J0.920 E13.63502
G1 X150.404 Y150.911 E13.7681
G2 X149.871 Y152.036 I2.207 J1.734 E13.80772
G2 X149.871 Y153.187 I2.822 J0.575 E13.84432
G1 X150.006 Y153.619 E13.85862
G0 F1080 X150.008 Y153.628
G0 X150.219 Y154.04
G0 X150.404 Y154.311
G0 F6000 X150.804 Y154.311
G0 X150.804 Y154.751
G0 X150.804 Y154.811
G0 X162.617 Y158.565
;TYPE:WALL-INNER
G1 F1200 X164.137 Y159.23 E13.9138
G1 X164.138 Y159.231 E13.91385
G3 X165.148 Y159.804 I-0.630 J2.288 E13.95279 F1200
G3 X165.610 Y160.326 I-3.035 J3.152 E13.97599
G3 X164.480 Y159.987 I0.359 J-3.250 E14.00661
G3 X162.617 Y158.565 I1907.576 J-2501.097 E14.05716
G0 F6000 X164.164 Y153.938
G1 F1200 X165.828 Y153.931 E14.11251
G1 X165.829 Y153.93 E14.11256
G1 X166.521 Y153.926 E14.13557
G3 X167.603 Y154.323 I-0.742 J3.695 E14.17408 F1200
G3 X166.461 Y154.484 I-0.980 J-2.820 E14.20416
G3 X164.164 Y153.938 I852.191 J-3590.239 E14.25521
G0 F6000 X164.067 Y150.104
G0 X164.099 Y148.902
G3 X166.009 Y148.070 I25.923 J56.901 E14.32457 F1200
G3 X167.015 Y148.038 I0.637 J4.202 E14.35813
G3 X166.022 Y148.646 I-2.327 J-2.686 E14.38675
G1 X164.66 Y148.902 E14.43285
G1 X164.099 Y148.902 E14.4391
G0 F6000 X157.374 Y141.94
G1 F1200 X157.876 Y140.354 E14.49443
G1 X157.877 Y140.353 E14.49448
G3 X158.432 Y139.179 I2.720 J0.568 E14.53814 F1200
G3 X158.816 Y138.777 I2.890 J2.376 E14.55664
G3 X158.604 Y139.914 I-3.643 J-0.091 E14.58643
G1 X158.238 Y140.517 E14.60989
G1 X158.237 Y140.518 E14.60994
G1 X157.374 Y141.94 E14.63779
G0 F6000 X152.611 Y140.893
G3 X152.361 Y138.371 I43.244 J-5.560 E14.72215 F1200
G3 X152.643 Y137.406 I4.600 J0.821 E14.75567
G1 X152.656 Y137.436
G3 X152.912 Y138.551 I-2.997 J1.275 E14.78612
G3 X152.611 Y140.893 I-58337.485 J-7496.497 E14.83692
G0 F6000 X148.305 Y141.456
G0 X147.529 Y141.336
G2 X146.649 Y139.829 I-575.115 J334.823 E14.89497 F1200
G3 X146.451 Y138.669 I3.587 J-1.209 E14.93433
G3 X147.162 Y139.609 I-2.622 J2.722 E14.96504
G3 X147.529 Y140.838 I-303.270 J91.231 E15.00387
G1 X147.529 Y141.336 E15.01022
G0 F6000 X147.094 Y141.967
G0 X143.863 Y144.689
G3 X141.814 Y143.179 I20.281 J-29.665 E15.09495 F1200
G3 X141.298 Y142.336 I3.325 J-2.615 E15.12790
G3 X142.308 Y142.879 I-1.238 J3.513 E15.15613
G3 X143.863 Y144.689 I-2939.592 J2527.024 E15.20801
G0 F6000 X141.385 Y148.89
G1 F1200 X139.757 Y148.553 E15.26331
G1 X139.756 Y148.552 E15.26335
G3 X138.761 Y148.270 I0.152 J-2.432 E15.29793 F1200
G3 X138.095 Y147.788 I2.458 J-4.098 E15.32531
G1 X138.23 Y147.781 E15.3261
G1 X138.291 Y147.777
G3 X139.269 Y147.885 I0.137 J3.243 E15.35470
G1 X139.882 Y148.176 E15.37727
G1 X139.883 Y148.177 E15.37732
G1 X141.385 Y148.89 E15.40516
G0 F6000 X140.831 Y153.736
G2 X138.555 Y154.234 I216.225 J993.660 E15.48265 F1200
G3 X137.370 Y154.069 I-0.112 J-3.536 E15.52267
G3 X138.516 Y153.682 I1.583 J2.796 E15.55276
G2 X140.831 Y153.736 I17.147 J-685.428 E15.60231
G0 F6000 X141.892 Y158.046
G0 X141.709 Y158.824
G1 F1200 X141.415 Y159.04 E15.61444
G3 X140.420 Y159.771 I-15277.667 J-20794.141 E15.65551 F1200
G3 X139.273 Y160.099 I-1.508 J-3.104 E15.69542
G1 X139.287 Y160.082
G3 X140.139 Y159.290 I2.512 J1.848 E15.72610
G3 X141.255 Y158.824 I168.007 J400.783 E15.76337
G1 X141.709 Y158.824 E15.76987
G0 F6000 X142.568 Y159.15
G0 X144.808 Y161.684
G0 X144.709 Y163.487
G1 F1200 X144.708 Y163.488 E15.76992
G1 X144.367 Y164.087 E15.79285
G3 X143.468 Y164.816 I-2.248 J-1.854 E15.83161 F1200
G3 X143.921 Y163.749 I3.657 J0.923 E15.86184
G2 X145.529 Y162.044 I-2061.495 J-1945.825 E15.93979
G1 X144.709 Y163.487 E15.96758
G0 F6000 X146.086 Y162.628
G0 X149.165 Y164.03
G0 X149.631 Y166.733
G3 X149.218 Y167.453 I-4.604 J-2.162 E15.99523 F1200
G3 X149.191 Y166.281 I3.655 J-0.671 E16.02553
G2 X149.972 Y164.061 I-665.874 J-235.503 E16.10380
G1 X149.81 Y165.709 E16.13152
G1 X149.809 Y165.71 E16.13157
G1 X149.74 Y166.404 E16.15476
G1 X149.655 Y166.66 E16.16374
G0 F1080 X149.631 Y166.733
G0 F6000 X150.716 Y164.376
G0 X154.755 Y163.59
G3 X150.099 Y163.552 I-2.169 J-19.527 E16.31891 F1200
G3 X145.845 Y161.619 I5.892 J-18.614 E16.47464
G3 X142.764 Y158.133 I12.994 J-14.589 E16.62969
G3 X141.359 Y153.696 I17.624 J-8.022 E16.78481
G3 X141.887 Y149.056 I19.353 J-0.148 E16.94045
G3 X144.254 Y145.035 I17.860 J7.806 E17.09596
G3 X148.032 Y142.339 I13.320 J14.670 E17.25063
G3 X152.609 Y141.406 I6.228 J18.860 E17.40631
G3 X157.154 Y142.418 I-1.900 J19.244 E17.56149
G3 X160.946 Y145.231 I-9.998 J17.440 E17.71887
G3 X163.002 Y142.968 I34.051 J28.870 E17.82065
G3 X163.900 Y142.535 I2.225 J3.466 E17.85389
G3 X163.235 Y143.496 I-3.181 J-1.491 E17.88278
G2 X161.894 Y144.425 I872.822 J1261.340 E17.92810
G2 X160.994 Y145.323 I393.323 J395.099 E17.94320
G3 X163.199 Y149.251 I-15.509 J11.289 E18.09332
G3 X163.643 Y153.872 I-19.173 J4.174 E18.24802
G3 X162.162 Y158.303 I-19.176 J-3.946 E18.40372
G3 X158.971 Y161.775 I-16.096 J-11.591 E18.56088
G2 X160.911 Y163.909 I3662.496 J-3327.593 E18.65680
G3 X161.343 Y164.994 I-3.204 J1.904 E18.69581
G3 X160.458 Y164.239 I1.845 J-3.059 E18.72424
G2 X159.634 Y162.735 I-1300.852 J711.723 E18.77083
G1 X158.823 Y161.924 E18.78815
G1 X158.765 Y161.866 E18.79088
G3 X155.059 Y163.482 I-8.986 J-15.551 E18.92560
G0 F1080 X154.755 Y163.59
G0 F6000 X155.54 Y167.512
G3 X155.045 Y166.488 I3.278 J-2.216 E18.96358 F1200
G3 X154.922 Y164.328 I13.144 J-1.832 E19.03559
G2 X155.585 Y166.331 I582.810 J-191.801 E19.08366
G3 X155.540 Y167.512 I-3.390 J0.462 E19.11334
G0 F6000 X155.633 Y168.301
G3 X154.648 Y166.547 I3.533 J-3.138 E19.18079 F1200
G3 X154.522 Y164.005 I23.440 J-2.436 E19.26551
G3 X150.382 Y163.976 I-1.945 J-17.797 E19.40091
G1 X150.135 Y166.471 E19.4843
G3 X149.118 Y168.245 I-4.584 J-1.450 E19.55292
G1 X148.973 Y168.197 E19.558
G3 X148.802 Y166.183 I4.833 J-1.425 E19.62361
G1 X149.637 Y163.808 E19.70734
G3 X145.942 Y162.127 I5.398 J-16.767 E19.84262
G1 X144.7 Y164.311 E19.92619
G3 X143.052 Y165.514 I-3.875 J-3.578 E19.99464
G1 X142.94 Y165.431 E19.99927
G3 X143.604 Y163.501 I4.801 J0.573 E20.06511
G1 X145.329 Y161.673 E20.14871
G3 X142.643 Y158.634 I11.765 J-13.105 E20.28386
G3 X140.622 Y160.119 I-6772.267 J-9214.551 E20.36728
G3 X138.620 Y160.550 I-2.028 J-4.555 E20.43599
G1 X138.55 Y160.427 E20.4407
G3 X139.948 Y158.936 I4.253 J2.586 E20.50667
G1 X141.175 Y158.424 E20.55089
G1 X142.273 Y158.424 E20.58741
G1 X142.274 Y158.424 E20.58744
G1 X142.449 Y158.424 E20.59326
G3 X141.044 Y154.099 I18.531 J-8.411 E20.74240
G1 X138.604 Y154.633 E20.82547
G3 X136.591 Y154.215 I0.019 J-5.148 E20.89447
G1 X136.578 Y154.074 E20.89918
G3 X138.491 Y153.281 I2.627 J3.633 E20.96612
G1 X140.973 Y153.339 E21.0487
G3 X141.432 Y149.308 I17.500 J-0.049 E21.18390
G1 X138.954 Y148.794 E21.26808
G3 X137.316 Y147.599 I2.134 J-4.645 E21.33609
G1 X137.36 Y147.468 E21.34068
G3 X139.407 Y147.508 I0.930 J4.810 E21.40700
G1 X141.674 Y148.584 E21.49046
G3 X143.732 Y145.087 I16.072 J7.104 E21.62568
G1 X141.693 Y143.624 E21.70915
G3 X140.667 Y141.855 I3.712 J-3.335 E21.77777
G1 X140.761 Y141.753 E21.78238
G3 X142.584 Y142.587 I-1.126 J4.871 E21.84681
G1 X144.247 Y144.522 E21.93167
G3 X147.550 Y142.165 I12.015 J13.345 E22.06688
G1 X146.282 Y139.994 E22.1505
G3 X146.063 Y137.976 I4.636 J-1.524 E22.21856
G1 X146.196 Y137.912 E22.22347
G3 X147.544 Y139.494 I-2.630 J3.606 E22.29108
G2 X147.929 Y140.781 I60.146 J-17.291 E22.33576
G1 X147.929 Y141.69 E22.36599
G1 X147.929 Y141.691 E22.36602
G1 X147.929 Y141.952 E22.37471
G3 X152.226 Y141.053 I5.987 J17.896 E22.51753
G1 X151.951 Y138.533 E22.60185
G3 X152.578 Y136.613 I5.056 J0.589 E22.66958
G1 X152.721 Y136.614 E22.67433
G3 X153.313 Y138.570 I-3.973 J2.270 E22.74033
G1 X152.993 Y141.059 E22.8238
G3 X156.954 Y141.940 I-1.797 J17.425 E22.95902
G1 X157.71 Y139.559 E23.04211
G3 X159.077 Y138.025 I4.153 J2.325 E23.11107
G1 X159.208 Y138.083 E23.11584
G3 X158.964 Y140.093 I-4.562 J0.466 E23.18142
G1 X157.649 Y142.257 E23.26564
G3 X160.909 Y144.671 I-8.415 J14.772 E23.40084
G1 X162.594 Y142.779 E23.4851
G3 X164.444 Y141.958 I2.925 J4.097 E23.55298
G1 X164.536 Y142.062 E23.55759
G3 X163.490 Y143.806 I-4.312 J-1.400 E23.62347
G1 X162.151 Y144.733 E23.67763
G1 X161.508 Y145.375 E23.70785
G3 X163.414 Y148.772 I-13.923 J10.045 E23.83765
G1 X165.723 Y147.731 E23.92189
G3 X167.746 Y147.736 I1.000 J4.792 E23.98976
G1 X167.788 Y147.87 E23.99443
G3 X166.096 Y149.038 I-3.322 J-3.003 E24.06085
G1 X164.697 Y149.302 E24.1082
G1 X163.848 Y149.302 E24.13644
G1 X163.847 Y149.302 E24.13647
G1 X163.613 Y149.302 E24.14426
G3 X164.035 Y153.539 I-18.155 J3.948 E24.28318
G1 X166.558 Y153.526 E24.3671
G3 X168.414 Y154.351 I-1.080 J4.931 E24.43522
G1 X168.396 Y154.494 E24.44001
G3 X166.402 Y154.881 I-1.902 J-4.469 E24.50555
G1 X163.947 Y154.298 E24.58947
G3 X162.660 Y158.147 I-17.262 J-3.632 E24.72471
G1 X164.955 Y159.153 E24.80806
G3 X166.330 Y160.671 I-2.869 J3.981 E24.87679
G1 X166.251 Y160.792 E24.8816
G3 X164.273 Y160.332 I0.065 J-4.762 E24.94744
G1 X162.273 Y158.806 E25.03112
G3 X159.531 Y161.796 I-14.324 J-10.383 E25.16631
G1 X161.234 Y163.669 E25.2505
G3 X161.857 Y165.595 I-4.149 J2.406 E25.31839
G1 X161.742 Y165.677 E25.32309
G3 X160.127 Y164.467 I2.158 J-4.563 E25.38817
G1 X159.311 Y162.977 E25.44467
G1 X158.69 Y162.356 E25.47388
G3 X155.189 Y163.860 I-8.556 J-15.090 E25.60083
G1 X155.978 Y166.246 E25.68442
G3 X155.769 Y168.273 I-5.091 J0.499 E25.74956
G1 X155.633 Y168.301 E25.75418
G0 F6000 X155.475 Y168.739
G3 X154.251 Y166.604 I3.770 J-3.580 E25.83682 F1200
G1 X154.122 Y165.031 E25.88931
G1 X154.122 Y164.643 E25.90222
G1 X154.122 Y164.642 E25.90225
G1 X154.122 Y164.431 E25.90927
G3 X150.741 Y164.406 I-1.576 J-15.464 E26.01936
G1 X150.53 Y166.54 E26.09069
G3 X149.263 Y168.685 I-5.060 J-1.542 E26.17441
G3 X148.663 Y168.553 I1.709 J-9.199 E26.19484
G3 X148.413 Y166.085 I4.793 J-1.732 E26.27818
G1 X149.129 Y164.047 E26.35003
G3 X146.096 Y162.666 I4.826 J-14.620 E26.46107
G1 X145.034 Y164.534 E26.53253
G3 X143.006 Y165.975 I-4.020 J-3.509 E26.61612
