;FLAVOR:Marlin
;TIME:1494
;Filament used: 0.939755m
;Layer height: 0.2
;MINX:133.844
;MINY:139.927
;MINZ:0.2
;MAXX:171.425
;MAXY:165.677
;MAXZ:20.8
;ARCWELDERPROCESSED
; Postprocessed by [ArcWelder](https://github.com/FormerLurker/ArcWelderLib)
; Copyright(C) 2020 - Brad Hochgesang
; resolution=0.05mm
; path_tolerance=1%
; max_radius=1000000.00mm
; firmware_compensation=True
; mm_per_arc_segment=1.00mm
; min_arc_segments=12
; default_xyz_precision=3
; default_e_precision=5

;Generated with Cura_SteamEngine 4.9.0
M140 S55
M105
M190 S55
M104 S225
M105
M109 S225
M82 ;absolute extrusion mode
M92 E144.22
;M201 X500.00 Y500.00 Z100.00 E5000.00 ;Setup machine max acceleration
;M203 X500.00 Y500.00 Z10.00 E50.00 ;Setup machine max feedrate
;M204 P500.00 R1000.00 T500.00 ;Setup Print/Retract/Travel acceleration
;M205 X10.00 Y10.00 Z0.40 E2.50 ;Setup Jerk
M220 S100 ;Reset Feedrate
M221 S100 ;Reset Flowrate
G28 ;Home

G92 E0 ;Reset Extruder
G1 Z3.0 F3000 ;Move Z Axis up
G1 X0 Y0 Z0.32 F5000.0 ;Move to start position
G1 X200 Y0.0 Z0.28 F1500.0 E15 ;Draw the first line
G1 X200 Y5.0 Z0.28 F5000.0 ;Move to side a little
G1 X0 Y5 Z0.28 F1500.0 E30 ;Draw the second line
G92 E0 ;Reset Extruder
G1 Z3.0 F3000 ;Move Z Axis up
G92 E0
G92 E0
G1 F3000 E-3
;LAYER_COUNT:105
;LAYER:0
M107
G0 F6000 X136.706 Y143.718 Z0.2
;TYPE:SKIRT
G1 F3000 E0
G3 X140.503 Y141.611 I6.106 J6.529 E0.14587 F1200
G3 X145.078 Y141.583 I2.341 J8.671 E0.29972
G3 X148.921 Y143.665 I-2.216 J8.678 E0.44655
G3 X151.370 Y147.435 I-6.113 J6.652 E0.59766
G3 X151.506 Y147.882 I-5.292 J1.854 E0.61320
G3 X153.519 Y147.683 I1.869 J8.627 E0.68063
G3 X155.274 Y143.468 I8.881 J1.225 E0.83417
G3 X158.642 Y140.763 I7.162 J5.469 E0.97924
G3 X163.034 Y139.948 I3.784 J8.152 E1.12937
G3 X167.434 Y141.449 I-0.606 J8.977 E1.28577
G3 X170.347 Y144.656 I-5.002 J7.470 E1.43129
G3 X171.425 Y148.852 I-7.894 J4.265 E1.57680
G3 X170.262 Y153.355 I-8.987 J0.080 E1.73323
G3 X167.203 Y156.550 I-7.886 J-4.488 E1.88184
G3 X163.089 Y157.897 I-4.763 J-7.591 E2.02723
G3 X162.282 Y157.920 I-0.642 J-8.339 E2.05409
G3 X160.599 Y162.040 I-8.881 J-1.224 E2.20369
G3 X157.243 Y164.802 I-7.226 J-5.360 E2.34968
G3 X152.909 Y165.665 I-3.872 J-8.132 E2.49817
G3 X148.766 Y164.411 I0.452 J-8.964 E2.64355
G3 X145.530 Y161.088 I4.642 J-7.758 E2.79956
G3 X144.709 Y159.095 I7.706 J-4.340 E2.87143
G3 X140.261 Y158.918 I-1.880 J-8.738 E3.02106
G3 X136.482 Y156.663 I2.587 J-8.630 E3.16891
G3 X134.242 Y152.947 I6.371 J-6.374 E3.31464
G3 X134.010 Y148.565 I8.649 J-2.655 E3.46204
G3 X135.773 Y144.730 I8.871 J1.756 E3.60373
G3 X136.145 Y144.289 I4.160 J3.132 E3.62292
G0 F1080 X136.382 Y144.035
G0 X136.706 Y143.718
G0 F6000 X136.973 Y144.016
G3 X140.599 Y141.999 I5.846 J6.242 E3.76229 F1200
G3 X144.984 Y141.972 I2.244 J8.297 E3.90977
G3 X148.655 Y143.964 I-2.111 J8.270 E4.05009
G3 X150.988 Y147.554 I-5.834 J6.344 E4.19399
G3 X151.217 Y148.360 I-8.353 J2.809 E4.22186
G3 X153.871 Y148.098 I2.152 J8.230 E4.31093
G3 X155.317 Y144.093 I8.522 J0.813 E4.45404
G3 X158.406 Y141.326 I7.122 J4.843 E4.59333
G3 X162.705 Y140.332 I4.015 J7.569 E4.74174
G3 X166.911 Y141.587 I-0.275 J8.597 E4.88934
G3 X169.772 Y144.455 I-4.516 J7.366 E5.02533
G3 X171.009 Y148.410 I-7.315 J4.459 E5.16452
G3 X170.250 Y152.491 I-8.577 J0.516 E5.30396
G3 X167.685 Y155.727 I-7.819 J-3.563 E5.44265
G3 X163.880 Y157.398 I-5.251 J-6.788 E5.58224
G3 X161.930 Y157.509 I-1.468 J-8.606 E5.64733
G3 X160.526 Y161.450 I-8.547 J-0.824 E5.78789
G3 X157.480 Y164.233 I-7.160 J-4.778 E5.92645
G3 X153.252 Y165.277 I-4.117 J-7.588 E6.07287
G3 X149.144 Y164.168 I0.112 J-8.577 E6.21586
G3 X146.072 Y161.220 I4.260 J-7.514 E6.35893
G3 X144.999 Y158.618 I7.275 J-4.522 E6.45297
G3 X140.778 Y158.644 I-2.162 J-8.283 E6.59482
G3 X137.100 Y156.698 I2.062 J-8.345 E6.73460
G3 X134.775 Y153.272 I5.729 J-6.390 E6.87366
G3 X134.366 Y148.839 I8.124 J-2.985 E7.02340
G3 X136.092 Y144.970 I8.528 J1.485 E7.16575
G3 X136.413 Y144.588 I2.330 J1.632 E7.18234
G0 F1080 X136.674 Y144.308
G0 X136.973 Y144.016
G0 F6000 X137.239 Y144.314
G3 X140.695 Y142.388 I5.568 J5.927 E7.31525 F1200
G3 X144.891 Y142.361 I2.149 J7.882 E7.45638
G3 X148.390 Y144.263 I-2.028 J7.900 E7.59018
G3 X150.607 Y147.673 I-5.585 J6.057 E7.72686
G3 X150.911 Y148.864 I-7.637 J2.584 E7.76778
G3 X154.240 Y148.524 I2.487 J7.884 E7.87985
G3 X155.441 Y144.638 I8.181 J0.400 E8.01654
G3 X158.261 Y141.866 I6.992 J4.293 E8.14936
G3 X162.040 Y140.737 I4.152 J7.009 E8.28183
G3 X165.919 Y141.508 I0.391 J8.178 E8.41468
G3 X168.977 Y143.995 I-3.498 J7.425 E8.54708
G3 X170.525 Y147.647 I-6.547 J4.929 E8.68032
G3 X170.175 Y151.603 I-8.085 J1.278 E8.81373
G3 X168.032 Y154.907 I-7.745 J-2.677 E8.94600
G3 X164.576 Y156.836 I-5.621 J-6.009 E9.07894
G3 X161.561 Y157.076 I-2.148 J-7.928 E9.18011
G3 X160.355 Y160.975 I-8.197 J-0.399 E9.31729
G3 X157.281 Y163.886 I-6.994 J-4.307 E9.45970
G3 X153.252 Y164.877 I-3.916 J-7.237 E9.59920
G3 X149.346 Y163.822 I0.110 J-8.167 E9.73515
G3 X146.416 Y161.016 I4.041 J-7.152 E9.87148
G3 X145.304 Y158.114 I6.937 J-4.322 E9.97547
G3 X141.236 Y158.337 I-2.466 J-7.768 E10.11243
G3 X137.655 Y156.646 I1.604 J-8.034 E10.24546
G3 X135.291 Y153.489 I5.177 J-6.340 E10.37793
G3 X134.675 Y149.582 I7.541 J-3.191 E10.51078
G3 X135.991 Y145.793 I8.141 J0.704 E10.64556
G3 X136.682 Y144.888 I6.588 J4.314 E10.68346
G0 F1080 X136.701 Y144.866
G0 X136.967 Y144.581
G0 X137.239 Y144.314
G0 F6000 X137.506 Y144.613
G3 X140.790 Y142.776 I5.306 J5.631 E10.80986 F1200
G3 X144.797 Y142.750 I2.052 J7.490 E10.94464
G3 X148.124 Y144.562 I-1.923 J7.492 E11.07192
G3 X150.225 Y147.792 I-5.305 J5.749 E11.20140
G3 X150.585 Y149.400 I-7.034 J2.419 E11.25631
G3 X154.272 Y148.934 I2.791 J7.262 E11.38112
G1 X154.632 Y148.984 E11.39321
G3 X155.591 Y145.176 I7.775 J-0.067 E11.52524
G3 X158.139 Y142.413 I6.836 J3.748 E11.65148
G3 X161.678 Y141.164 I4.295 J6.530 E11.77754
G3 X165.445 Y141.734 I0.759 J7.715 E11.90554
G3 X168.424 Y143.941 I-3.015 J7.184 E12.03004
G3 X170.061 Y147.335 I-5.986 J4.979 E12.15662
G3 X169.893 Y151.182 I-7.631 J1.594 E12.28601
G3 X168.031 Y154.347 I-7.434 J-2.243 E12.40929
G3 X164.835 Y156.342 I-5.618 J-5.442 E12.53583
G3 X161.169 Y156.620 I-2.407 J-7.428 E12.65926
G3 X160.284 Y160.291 I-7.763 J0.071 E12.78613
G3 X157.739 Y163.141 I-6.917 J-3.616 E12.91450
G3 X154.210 Y164.432 I-4.351 J-6.424 E13.04072
G3 X150.473 Y163.918 I-0.842 J-7.723 E13.16744
G3 X147.433 Y161.731 I2.899 J-7.236 E13.29323
G3 X145.756 Y158.344 I5.932 J-5.046 E13.42019
G3 X145.629 Y157.576 I7.619 J-1.654 E13.44609
G3 X141.789 Y158.026 I-2.797 J-7.263 E13.57604
G3 X138.141 Y156.521 I1.061 J-7.744 E13.70871
G3 X135.662 Y153.342 I4.716 J-6.234 E13.84430
G3 X135.072 Y149.626 I7.213 J-3.050 E13.97067
G3 X136.328 Y146.008 I7.768 J0.670 E14.09936
G3 X136.951 Y145.189 I6.032 J3.942 E14.13361
G0 F1080 X136.993 Y145.139
G0 X137.259 Y144.854
G0 X137.506 Y144.613
G0 F6000 X137.772 Y144.911
G3 X140.886 Y143.164 I5.044 J5.343 E14.25355 F1200
G3 X144.703 Y143.139 I1.955 J7.114 E14.38195
G3 X147.858 Y144.862 I-1.837 J7.114 E14.50273
G3 X149.843 Y147.911 I-5.037 J5.450 E14.62498
G3 X150.231 Y149.981 I-6.938 J2.372 E14.69526
G3 X153.953 Y149.305 I3.147 J6.743 E14.82247
G3 X155.052 Y149.477 I-0.473 J6.618 E14.85950
G3 X155.636 Y145.994 I7.355 J-0.557 E14.97811
G3 X157.791 Y143.161 I6.779 J2.921 E15.09767
G3 X161.058 Y141.655 I4.631 J5.749 E15.21852
G3 X164.810 Y141.921 I1.371 J7.261 E15.34500
G3 X167.901 Y143.949 I-2.346 J6.945 E15.46928
G3 X169.594 Y147.089 I-5.476 J4.979 E15.58910
G3 X169.623 Y150.641 I-7.151 J1.835 E15.70840
G3 X167.973 Y153.821 I-7.167 J-1.701 E15.82876
G3 X165.047 Y155.844 I-5.543 J-4.890 E15.94822
G3 X161.251 Y156.228 I-2.618 J-6.922 E16.07656
G3 X160.748 Y156.130 I1.291 J-7.967 E16.09360
G3 X160.061 Y159.841 I-7.322 J0.564 E16.22055
G3 X157.824 Y162.588 I-6.684 J-3.158 E16.33953
G3 X154.516 Y163.988 I-4.432 J-5.863 E16.46020
G3 X150.978 Y163.679 I-1.146 J-7.287 E16.57950
G3 X147.990 Y161.754 I2.383 J-6.980 E16.69888
G3 X146.236 Y158.627 I5.380 J-5.073 E16.81932
G3 X145.985 Y156.993 I6.880 J-1.893 E16.87442
G3 X142.365 Y157.680 I-3.144 J-6.688 E16.99827
G3 X139.070 Y156.662 I0.469 J-7.360 E17.11403
G3 X136.508 Y154.122 I3.782 J-6.377 E17.23523
G3 X135.456 Y150.714 I6.309 J-3.814 E17.35503
G3 X136.118 Y147.213 I7.323 J-0.428 E17.47472
G3 X137.220 Y145.490 I6.546 J2.973 E17.54298
G0 F1080 X137.285 Y145.412
G0 X137.551 Y145.127
G0 X137.772 Y144.911
G0 F6000 X138.039 Y145.209
G3 X140.981 Y143.553 I4.777 J5.046 E17.65638 F1200
G3 X144.327 Y143.460 I1.861 J6.702 E17.76880
G3 X147.361 Y144.955 I-1.485 J6.840 E17.88242
G3 X149.362 Y147.760 I-4.536 J5.352 E17.99819
G3 X149.831 Y150.646 I-6.524 J2.541 E18.09614
G3 X153.147 Y149.686 I3.539 J6.017 E18.21216
G3 X155.519 Y150.019 I0.238 J6.920 E18.29221
G3 X155.861 Y146.507 I6.867 J-1.104 E18.41087
G3 X157.753 Y143.718 I6.557 J2.412 E18.52406
G3 X160.891 Y142.097 I4.684 J5.220 E18.64280
G3 X164.400 Y142.210 I1.536 J6.837 E18.76081
G3 X167.342 Y143.943 I-1.945 J6.666 E18.87552
G3 X169.103 Y146.824 I-4.912 J4.981 E18.98894
G3 X169.313 Y150.176 I-6.683 J2.101 E19.10173
G3 X167.916 Y153.266 I-6.912 J-1.264 E19.21564
G3 X165.256 Y155.326 I-5.487 J-4.338 E19.32863
G3 X161.809 Y155.897 I-2.837 J-6.437 E19.44606
G3 X160.283 Y155.585 I0.666 J-7.144 E19.49796
G3 X159.949 Y159.074 I-6.898 J1.100 E19.61579
G3 X158.111 Y161.829 I-6.553 J-2.381 E19.72699
G3 X155.089 Y163.463 I-4.729 J-5.135 E19.84243
G3 X151.703 Y163.477 I-1.721 J-6.782 E19.95617
G3 X148.759 Y161.942 I1.680 J-6.812 E20.06764
G3 X146.841 Y159.190 I4.622 J-5.266 E20.18029
G3 X146.380 Y156.335 I6.662 J-2.540 E20.27714
G3 X142.876 Y157.297 I-3.548 J-6.059 E20.39937
G3 X139.545 Y156.471 I-0.030 J-7.008 E20.51468
G3 X137.056 Y154.236 I3.307 J-6.186 E20.62701
G3 X135.886 Y151.070 I5.773 J-3.933 E20.74038
G3 X136.332 Y147.728 I6.881 J-0.783 E20.85363
G3 X137.489 Y145.791 I6.439 J2.532 E20.92900
G0 F1080 X137.578 Y145.685
G0 X137.844 Y145.4
G0 X138.039 Y145.209
G0 F6000 X138.305 Y145.508
G3 X141.077 Y143.941 I4.518 J4.757 E21.03596 F1200
G3 X144.233 Y143.848 I1.766 J6.350 E21.14199
G3 X147.095 Y145.254 I-1.398 J6.461 E21.24910
G3 X148.994 Y147.915 I-4.272 J5.057 E21.35895
G3 X149.401 Y151.002 I-6.148 J2.381 E21.46349
G2 X149.355 Y151.445 I0.814 J0.308 E21.47836
G3 X152.154 Y150.196 I4.000 J5.203 E21.58122
G3 X155.398 Y150.400 I1.221 J6.476 E21.69045
G3 X156.065 Y150.658 I-1.806 J5.660 E21.71425
G3 X156.038 Y147.279 I6.293 J-1.740 E21.82792
G3 X157.555 Y144.478 I6.373 J1.640 E21.93491
G3 X160.214 Y142.709 I4.879 J4.450 E22.04219
G3 X163.502 Y142.414 I2.218 J6.252 E22.15315
G3 X166.573 Y143.791 I-1.082 J6.525 E22.26632
G3 X168.490 Y146.320 I-4.160 J5.145 E22.37290
G3 X169.004 Y149.464 I-6.068 J2.606 E22.47990
G3 X167.985 Y152.482 I-6.570 J-0.537 E22.58689
G3 X165.678 Y154.666 I-5.563 J-3.566 E22.69359
G3 X162.613 Y155.520 I-3.252 J-5.746 E22.80046
G3 X159.738 Y154.950 I-0.181 J-6.622 E22.89875
G3 X159.790 Y158.216 I-6.335 J1.734 E23.00853
G3 X158.298 Y161.071 I-6.425 J-1.541 E23.11676
G3 X155.508 Y162.923 I-4.923 J-4.390 E23.22935
G3 X152.219 Y163.176 I-2.136 J-6.262 E23.34023
G3 X149.204 Y161.797 I1.161 J-6.524 E23.45167
G3 X147.218 Y159.057 I4.200 J-5.134 E23.56546
G3 X146.820 Y155.912 I6.179 J-2.380 E23.67192
G1 X146.88 Y155.513 E23.68534
G3 X143.758 Y156.832 I-4.041 J-5.210 E23.79934
G3 X140.536 Y156.480 I-0.918 J-6.516 E23.90825
G3 X137.786 Y154.537 I2.269 J-6.129 E24.02150
G3 X136.388 Y151.673 I5.047 J-4.237 E24.12855
G3 X136.538 Y148.348 I6.445 J-1.375 E24.24045
G3 X137.758 Y146.092 I6.266 J1.930 E24.32631
G0 F1080 X137.87 Y145.958
G0 X138.136 Y145.673
G0 X138.305 Y145.508
G0 F6000 X138.572 Y145.806
G3 X141.172 Y144.330 I4.237 J4.435 E24.42674 F1200
G3 X144.140 Y144.237 I1.671 J5.935 E24.52646
G3 X146.830 Y145.553 I-1.312 J6.090 E24.62705
G3 X148.625 Y148.070 I-4.001 J4.752 E24.73094
G3 X149.005 Y150.947 I-5.780 J2.227 E24.82836
G3 X148.467 Y152.894 I-6.147 J-0.651 E24.89584
G3 X150.916 Y150.988 I4.892 J3.759 E25.00015
G3 X153.838 Y150.499 I2.462 J5.734 E25.09962
G3 X156.803 Y151.521 I-0.449 J6.116 E25.20509
G3 X156.248 Y148.450 I5.592 J-2.596 E25.31003
G3 X157.120 Y145.724 I6.171 J0.471 E25.40608
G3 X159.237 Y143.612 I5.312 J3.208 E25.50651
G3 X162.183 Y142.732 I3.191 J5.313 E25.60985
G3 X165.027 Y143.298 I0.246 J6.192 E25.70720
G3 X167.410 Y145.237 I-2.607 J5.638 E25.81044
G3 X168.586 Y148.219 I-4.982 J3.688 E25.91826
G3 X168.166 Y151.267 I-6.131 J0.708 E26.02167
G3 X166.475 Y153.618 I-5.717 J-2.329 E26.11889
G3 X163.806 Y154.967 I-4.030 J-4.658 E26.21935
G3 X160.673 Y154.870 I-1.382 J-6.001 E26.32474
G3 X159.004 Y154.092 I1.737 J-5.905 E26.38620
G3 X159.565 Y156.956 I-5.625 J2.589 E26.48419
G3 X158.669 Y159.899 I-6.187 J-0.276 E26.58758
G3 X156.624 Y161.957 I-5.296 J-3.217 E26.68498
G3 X153.689 Y162.870 I-3.254 J-5.286 E26.78827
G3 X150.844 Y162.338 I-0.318 J-6.171 E26.88543
G3 X148.485 Y160.491 I2.468 J-5.582 E26.98607
G3 X147.271 Y157.762 I4.887 J-3.809 E27.08640
G3 X147.470 Y154.787 I6.108 J-1.086 E27.18653
G3 X147.747 Y154.085 I5.281 J1.678 E27.21165
G3 X145.220 Y156.021 I-4.899 J-3.777 E27.31872
G3 X142.172 Y156.461 I-2.386 J-5.751 E27.42221
G3 X139.380 Y155.439 I0.678 J-6.177 E27.52206
G3 X137.414 Y153.292 I3.477 J-5.158 E27.61979
G3 X136.644 Y150.407 I5.436 J-2.996 E27.72008
G3 X137.305 Y147.510 I6.200 J-0.109 E27.81988
G3 X138.027 Y146.393 I5.425 J2.715 E27.86420
G0 F1080 X138.163 Y146.231
G0 X138.429 Y145.946
G0 X138.572 Y145.806
G0 F6000 X138.838 Y146.104
G3 X141.268 Y144.718 I3.990 J4.172 E27.95816 F1200
G3 X144.046 Y144.626 I1.575 J5.561 E28.05151
G3 X146.564 Y145.852 I-1.215 J5.694 E28.14557
G3 X148.256 Y148.225 I-3.741 J4.457 E28.24354
G3 X148.608 Y150.893 I-5.362 J2.065 E28.33386
G3 X147.662 Y153.519 I-5.774 J-0.597 E28.42761
G3 X145.590 Y155.403 I-4.811 J-3.209 E28.52167
G3 X142.897 Y156.097 I-2.754 J-5.114 E28.61505
G3 X140.080 Y155.397 I-0.053 J-5.803 E28.71262
G3 X138.067 Y153.590 I2.777 J-5.118 E28.80341
G3 X137.082 Y150.971 I4.774 J-3.290 E28.89738
G3 X137.436 Y148.200 I5.673 J-0.683 E28.99122
G3 X138.299 Y146.695 I5.311 J2.045 E29.04914
G0 F1080 X138.332 Y146.651
G0 X138.455 Y146.504
G0 X138.721 Y146.219
G0 X138.838 Y146.104
G0 F6000 X139.104 Y146.403
G3 X141.364 Y145.107 I3.706 J3.844 E29.13665 F1200
G3 X143.952 Y145.015 I1.478 J5.138 E29.22362
G3 X146.299 Y146.151 I-1.120 J5.307 E29.31120
G3 X147.887 Y148.380 I-3.491 J4.168 E29.40320
G3 X148.212 Y150.838 I-4.993 J1.911 E29.48641
G3 X147.337 Y153.286 I-5.363 J-0.537 E29.57371
G3 X145.413 Y155.044 I-4.476 J-2.967 E29.66125
G3 X142.904 Y155.697 I-2.578 J-4.759 E29.74831
G3 X140.258 Y155.039 I-0.057 J-5.421 E29.83997
G3 X138.404 Y153.374 I2.599 J-4.759 E29.92358
G3 X137.481 Y150.938 I4.426 J-3.070 E30.01107
G3 X137.804 Y148.357 I5.291 J-0.649 E30.09844
G3 X138.570 Y146.999 I4.825 J1.827 E30.15049
G0 F1080 X138.651 Y146.891
G0 X138.748 Y146.777
G0 X139.014 Y146.492
G0 X139.104 Y146.403
G0 F6000 X139.371 Y146.701
G3 X141.459 Y145.495 I3.449 J3.561 E30.23148 F1200
G3 X143.858 Y145.404 I1.382 J4.768 E30.31211
G3 X146.033 Y146.450 I-1.003 J4.871 E30.39316
G3 X147.519 Y148.535 I-3.221 J3.867 E30.47925
G3 X147.816 Y150.784 I-4.644 J1.757 E30.55535
G3 X147.012 Y153.053 I-4.965 J-0.482 E30.63620
G3 X145.235 Y154.686 I-4.162 J-2.745 E30.71725
G3 X142.911 Y155.297 I-2.402 J-4.410 E30.79794
G3 X140.437 Y154.681 I-0.066 J-5.010 E30.88367
G3 X138.741 Y153.159 I2.421 J-4.403 E30.96011
G3 X137.879 Y150.905 I4.103 J-2.861 E31.04115
G3 X138.171 Y148.514 I4.910 J-0.614 E31.12205
G3 X138.843 Y147.302 I4.463 J1.682 E31.16830
G0 F1080 X138.971 Y147.132
G0 X139.04 Y147.05
G0 X139.306 Y146.765
G0 X139.371 Y146.701
G0 F6000 X139.637 Y146.999
G3 X141.555 Y145.883 I3.180 J3.258 E31.24282 F1200
G3 X143.765 Y145.793 I1.286 J4.401 E31.31710
G3 X145.767 Y146.749 I-0.907 J4.474 E31.39161
G3 X147.150 Y148.690 I-2.953 J3.567 E31.47176
G3 X147.424 Y150.686 I-4.276 J1.604 E31.53930
G3 X146.687 Y152.820 I-4.601 J-0.395 E31.61514
G3 X145.057 Y154.328 I-3.832 J-2.507 E31.68972
G3 X142.918 Y154.897 I-2.217 J-4.029 E31.76403
G3 X140.615 Y154.323 I-0.079 J-4.591 E31.84386
G3 X139.078 Y152.943 I2.249 J-4.051 E31.91312
